X: 9
T: The Bonny Breastknots (Devon)
M:4/4
L:1/4
S:Graham Spencer <graham:rannygazoo.freeserve.co.uk> tradtunes 2002-12-26
Q:112
K:G
|:GA/2G/2FG/2F/2|Eed/2c/2B/2A/2|GA/2G/2FA|d/2^c/2d/2A/2FD:|
fdfa|e/2d/2^c/2d/2 e/2f/2g/2e/2|fdfa|a/2g/2f/2e/2A2|fdfa|e/2d/2^c/2d/2 e/2f/2g|ffef/2e/2|dfd2||
% ABC2Win Version 2.1 26/12/2002


